automatic/svg/FB Alpha - Arcade Games-content.svg

<?xml version="1.0" encoding="UTF-8" standalone="no"?>
<svg
   xmlns:dc="http://purl.org/dc/elements/1.1/"
   xmlns:cc="http://creativecommons.org/ns#"
   xmlns:rdf="http://www.w3.org/1999/02/22-rdf-syntax-ns#"
   xmlns:svg="http://www.w3.org/2000/svg"
   xmlns="http://www.w3.org/2000/svg"
   viewBox="0 0 320 320"
   height="320"
   width="320"
   xml:space="preserve"
   id="svg2"
   version="1.1"><metadata
     id="metadata8"><rdf:RDF><cc:Work
         rdf:about=""><dc:format>image/svg+xml</dc:format><dc:type
           rdf:resource="http://purl.org/dc/dcmitype/StillImage" /></cc:Work></rdf:RDF></metadata><defs
     id="defs6"><clipPath
       id="clipPath20"
       clipPathUnits="userSpaceOnUse"><path
         id="path18"
         d="M 0,256 H 256 V 0 H 0 Z" /></clipPath></defs><g
     transform="matrix(1.3333333,0,0,-1.3333333,-10.666666,330.66666)"
     id="g10"><path
       id="path12"
       style="fill:#f2f2f2;fill-opacity:1;fill-rule:nonzero;stroke:none"
       d="M 244,12 H 12 v 232 h 232 z m 0,236 H 12 8 V 244 12 8 h 4 232 4 v 4 232 4 z" /><g
       id="g14"><g
         clip-path="url(#clipPath20)"
         id="g16"><g
           transform="translate(20,16)"
           id="g22"><path
             id="path24"
             style="fill:#f2f2f2;fill-opacity:1;fill-rule:nonzero;stroke:none"
             d="M 0,0 C 2.209,0 4,1.791 4,4 4,6.209 2.209,8 0,8 -2.209,8 -4,6.209 -4,4 -4,1.791 -2.209,0 0,0" /></g><g
           transform="translate(236,24)"
           id="g26"><path
             id="path28"
             style="fill:#f2f2f2;fill-opacity:1;fill-rule:nonzero;stroke:none"
             d="m 0,0 c -2.209,0 -4,-1.791 -4,-4 0,-2.209 1.791,-4 4,-4 2.209,0 4,1.791 4,4 0,2.209 -1.791,4 -4,4" /></g><g
           transform="translate(20,232)"
           id="g30"><path
             id="path32"
             style="fill:#f2f2f2;fill-opacity:1;fill-rule:nonzero;stroke:none"
             d="M 0,0 C 2.209,0 4,1.791 4,4 4,6.209 2.209,8 0,8 -2.209,8 -4,6.209 -4,4 -4,1.791 -2.209,0 0,0" /></g><path
           id="path34"
           style="fill:#f2f2f2;fill-opacity:1;fill-rule:nonzero;stroke:none"
           d="m 32.5,204 h 36 v -36 h -36 z m 40,-40 v 4 36 4 h -4 -36 -4 v -4 -36 -4 h 4 36 z" /><path
           id="path36"
           style="fill:#f2f2f2;fill-opacity:1;fill-rule:nonzero;stroke:none"
           d="M 60,176 H 40 v 20 h 20 z m -20,24 h -4 v -4 -20 -4 h 4 20 4 v 4 20 4 h -4 z" /><g
           transform="translate(36,148)"
           id="g38"><path
             id="path40"
             style="fill:#f2f2f2;fill-opacity:1;fill-rule:nonzero;stroke:none"
             d="m 0,0 v -15.577 h -8 v 16 H 0 Z M 12,0 V -0.423 -16 H 4 V -15.577 0 Z M 24,-0.423 V -16 -16.423 H 16 V -16 -0.423 Z M 32,8 h 8 V -16 H 36 32 Z M 44,48 H 56 V 12 h -4 -8 z m 0,40 H 56 V 52 H 44 Z m 16,0 H 72 V 52 H 60 Z m 16,0 H 88 V 52 H 76 Z m 16,0 h 12 V 52 H 92 Z m 12,-76 h -4 -8 v 36 h 12 z m 8,-4 v -24 h -4 -4 V 8 h 4 z m 4,0 h 4 4 v -24 h -4 -4 z m 8,36 h 12 V 12 h -8 -4 z m 0,36 h 12 V 48 h -12 z m 16,0 h 12 V 48 h -12 z m 16,0 h 12 V 48 h -12 z m 16,0 h 12 V 52 48 h -12 z m 28,4 V 52 h -12 v 28 4 z m 0,-72 h -4 -8 v 32 4 h 12 z m -4,-28 h -8 V 8 h 8 z m 0,-36 h -12 v 4 4 24 h 4 8 z m -20,-8 h 8 v -32 h -8 z m 8,-68 h -8 v 32 h 8 z m -12.138,12 H 164 V -96.075 -96 h 7.862 z M 152,-96.075 h 7.862 V -116 -116.075 H 152 Z m 0,24 h 7.862 V -92 -92.075 H 152 Z m 0,24 h 7.862 V -68 -68.075 H 152 Z M 144,-44 h -8 v 24 h 4 4 z m 4,52 v -24 h -4 -4 V 8 Z m 20,4 h -4 -4 -4 v 32 h 12 z m 12,-56 H 175.862 172 v 24 h 4 4 z M 164,-72.075 V -72 h 7.862 V -92 H 164 Z M 168,-44 H 163.862 160 v 24 h 4 4 z m -4,-4.075 V -48 h 4 3.862 V -68 H 164 Z M 172,-16 h -4 -4 V 8 h 4 4 z M 152,8 h 4 4 v -24 h -4 -4 z m -4,-28 h 4 4 v -24 h -8 z m 32,-32 v -4 h -4 -0.138 v 8 H 180 Z m 4,36 h -4 -4 V 8 h 8 z m 0,28 h -8 -4 v 32 h 12 z m -44,32 h 12 V 12 h -4 -8 z M 128,8 h 8 v -24 h -4 -4 z m 4,-52 h -8 v 24 h 4 4 z m -12,0 h -4 -4 v 24 h 4 4 z m -8,-8 h -3.396 -0.453 -3.547 -0.453 H 100 v 4 h 8 4 z m 8.151,-4 v -32 h -11.547 v 32 h 3.396 4 z m 0,-68 h -11.547 v 32 h 11.547 z m -23.547,32 h 7.547 v -32 h -7.547 z m -4.15,-32 h -8 v 32 h 8 z m -12.152,0 h -8 v 32 h 8 z m -12.151,0 h -8 v 32 h 8 z M 56,-124 h -8 v 28 4 h 8 z m -16,32 h -4 v 20 h 8 v -16 -4 z m -4,-20 h -8 v 16 h 4 4 z m -12,0 h -8 v 16 h 4 4 z m 0,40 h 8 v -20 h -4 -4 z m -8,-4 h -28 v 28 h 4 8 4 8 4 z m -24,48 h 8 v -16 h -8 z m 12,0 h 8 V -44 H 4 Z m 12,0 h 8 v -16 h -4 -4 z m 32,8 v -24 h -4 -4 v 24 h 4 z M 64,8 V -16 H 60 56 V 8 h 4 z m 24,4 h -8 -4 v 36 h 12 z m 12,-28 H 96 92 V 8 h 8 z M 88,-44 v 24 h 4 4 v -24 z m 8,-8 h -3.395 -0.151 -8 H 84.302 84 v 4 h 4 8 z m -11.546,-4 h 8 v -32 h -8 z m -12.152,0 H 80 80.302 v -32 h -8 z m -12.151,0 H 64 h 4 0.151 v -32 h -8 z M 48,-72 v 4 12 h 4 4 v -32 h -8 z m 12,24 h 4 v -4 H 60.151 60 56.151 56 52 v 4 z m 12,28 v -24 h -4 -4 v 24 h 4 z m 8,-32 H 72.302 72.151 68.302 68.151 68 v 4 h 4 4 4 z m 4,8 h -4 -4 v 24 h 4 4 z m 4,28 H 84 80 V 8 h 8 z M 68,8 h 4 4 V -16 H 72 68 Z M 52,-20 h 4 4 V -44 H 52 Z M 36,-48 h 4 4 v -4 -4 -12 h -8 z m -12,0 h 4 4 v -20 h -8 z m 80.151,-40 h -7.547 v 32 H 100 104.151 Z M 108,-44 h -8 v 24 h 4 4 z M 60,48 H 72 V 12 H 68 64 60 Z M 44,8 h 8 V -16 H 48 44 Z M 28,-20.423 V -20 h 4 4 v -24 h -4 -4 v 16 4 z M 36,68 H -4 V 84 H 36 Z M 12,-112 H 4 v 16 h 8 z m -12,0 h -8 v 16 H 0 Z M -12,4.423 v -4 -16 -4 h 4 8 V -20 h 4 8 v -0.423 h 4 8 V -24 H 16 12 4 0 -8 -12 v -4 -16 h -4 v -4 -28 -4 h 4 28 4 V -92 H 16 12 4 0 -8 -12 v -4 -16 -4 h 4 8 4 8 4 8 4 8 4 v 4 16 h 4 v -28 -4 h 4 8 0.151 3.849 0.151 8 0.151 3.849 0.151 8 0.152 3.848 0.152 8 0.151 3.848 0.151 7.547 0.453 3.547 0.453 11.547 4 v 4 32 4 32 4 h -4 H 116 v 4 h 4 4 8 4 8 4 v -0.075 -20 -4 -20 -4 -20 -4 h 4 8 4 V -120 h 7.862 0.138 v -8 -4 h 4 8 4 v 4 32 4 32 4 h 8 4 v 4 32 4 24 h 4 v 4 36 4 32 4 h -4 -12 -4 v -4 h -12 -4 -12 -4 -12 -4 -12 -4 V 80 48 44 12 h -4 -4 -4 v 36 4 36 4 H 104 92 88 76 72 60 56 44 40 V 88 H 36 -4 -8 V 84 68 64 h 4 40 4 V 52 48 12 H 32 28 V 8 3.577 H 24 16 V 4 H 12 4 V 4.423 H 0 -8 Z" /></g></g></g></g></svg>

<?xml version="1.0" encoding="UTF-8" standalone="no"?>
<svg
   xmlns:dc="http://purl.org/dc/elements/1.1/"
   xmlns:cc="http://creativecommons.org/ns#"
   xmlns:rdf="http://www.w3.org/1999/02/22-rdf-syntax-ns#"
   xmlns:svg="http://www.w3.org/2000/svg"
   xmlns="http://www.w3.org/2000/svg"
   viewBox="0 0 320 320"
   height="320"
   width="320"
   xml:space="preserve"
   version="1.1"
   id="svg2"><metadata
     id="metadata8"><rdf:RDF><cc:Work
         rdf:about=""><dc:format>image/svg+xml</dc:format><dc:type
           rdf:resource="http://purl.org/dc/dcmitype/StillImage" /></cc:Work></rdf:RDF></metadata><defs
     id="defs6"><clipPath
       id="clipPath18"
       clipPathUnits="userSpaceOnUse"><path
         id="path20"
         d="M 0,256 256,256 256,0 0,0 0,256 Z" /></clipPath></defs><g
     transform="matrix(1.25,0,0,-1.25,0,320)"
     id="g10"><path
       id="path12"
       style="fill:#f2f2f2;fill-opacity:1;fill-rule:nonzero;stroke:none"
       d="m 244,12 -232,0 0,232 232,0 0,-232 z m 0,236 -232,0 -4,0 0,-4 0,-232 0,-4 4,0 232,0 4,0 0,4 0,232 0,4 -4,0 z" /><g
       id="g14"><g
         clip-path="url(#clipPath18)"
         id="g16"><g
           transform="translate(20,16)"
           id="g22"><path
             id="path24"
             style="fill:#f2f2f2;fill-opacity:1;fill-rule:nonzero;stroke:none"
             d="M 0,0 C 2.209,0 4,1.791 4,4 4,6.209 2.209,8 0,8 -2.209,8 -4,6.209 -4,4 -4,1.791 -2.209,0 0,0" /></g><g
           transform="translate(236,24)"
           id="g26"><path
             id="path28"
             style="fill:#f2f2f2;fill-opacity:1;fill-rule:nonzero;stroke:none"
             d="m 0,0 c -2.209,0 -4,-1.791 -4,-4 0,-2.209 1.791,-4 4,-4 2.209,0 4,1.791 4,4 0,2.209 -1.791,4 -4,4" /></g><g
           transform="translate(20,232)"
           id="g30"><path
             id="path32"
             style="fill:#f2f2f2;fill-opacity:1;fill-rule:nonzero;stroke:none"
             d="M 0,0 C 2.209,0 4,1.791 4,4 4,6.209 2.209,8 0,8 -2.209,8 -4,6.209 -4,4 -4,1.791 -2.209,0 0,0" /></g><path
           id="path34"
           style="fill:#f2f2f2;fill-opacity:1;fill-rule:nonzero;stroke:none"
           d="m 32.5,204 36,0 0,-36 -36,0 0,36 z m 40,-40 0,4 0,36 0,4 -4,0 -36,0 -4,0 0,-4 0,-36 0,-4 4,0 36,0 4,0 z" /><path
           id="path36"
           style="fill:#f2f2f2;fill-opacity:1;fill-rule:nonzero;stroke:none"
           d="m 60,176 -20,0 0,20 20,0 0,-20 z m -20,24 -4,0 0,-4 0,-20 0,-4 4,0 20,0 4,0 0,4 0,20 0,4 -4,0 -20,0 z" /><g
           transform="translate(36,148)"
           id="g38"><path
             id="path40"
             style="fill:#f2f2f2;fill-opacity:1;fill-rule:nonzero;stroke:none"
             d="m 0,0 0,-15.577 -8,0 0,16 8,0 L 0,0 Z M 12,0 12,-0.423 12,-16 4,-16 4,-15.577 4,0 12,0 Z M 24,-0.423 24,-16 l 0,-0.423 -8,0 0,0.423 0,15.577 8,0 z M 32,8 l 8,0 0,-24 -4,0 -4,0 0,24 z m 12,40 12,0 0,-36 -4,0 -8,0 0,36 z m 0,40 12,0 0,-36 -12,0 0,36 z m 16,0 12,0 0,-36 -12,0 0,36 z m 16,0 12,0 0,-36 -12,0 0,36 z m 16,0 12,0 0,-36 -12,0 0,36 z m 12,-76 -4,0 -8,0 0,36 12,0 0,-36 z m 8,-4 0,-24 -4,0 -4,0 0,24 4,0 4,0 z m 4,0 4,0 4,0 0,-24 -4,0 -4,0 0,24 z m 8,36 12,0 0,-32 -8,0 -4,0 0,32 z m 0,36 12,0 0,-32 -12,0 0,32 z m 16,0 12,0 0,-32 -12,0 0,32 z m 16,0 12,0 0,-32 -12,0 0,32 z m 16,0 12,0 0,-28 0,-4 -12,0 0,32 z m 28,4 0,-32 -12,0 0,28 0,4 12,0 z m 0,-72 -4,0 -8,0 0,32 0,4 12,0 0,-36 z m -4,-28 -8,0 0,24 8,0 0,-24 z m 0,-36 -12,0 0,4 0,4 0,24 4,0 8,0 0,-32 z m -20,-8 8,0 0,-32 -8,0 0,32 z m 8,-68 -8,0 0,32 8,0 0,-32 z m -12.138,12 -7.862,0 0,19.925 0,0.075 7.862,0 0,-20 z M 152,-96.075 l 7.862,0 0,-19.925 0,-0.075 -7.862,0 0,20 z m 0,24 7.862,0 0,-19.925 0,-0.075 -7.862,0 0,20 z m 0,24 7.862,0 0,-19.925 0,-0.075 -7.862,0 0,20 z m -8,4.075 -8,0 0,24 4,0 4,0 0,-24 z m 4,52 0,-24 -4,0 -4,0 0,24 8,0 z m 20,4 -4,0 -4,0 -4,0 0,32 12,0 0,-32 z m 12,-56 -4.138,0 -3.862,0 0,24 4,0 4,0 0,-24 z m -16,-28.075 0,0.075 7.862,0 0,-20 -7.862,0 0,19.925 z m 4,28.075 -4.138,0 -3.862,0 0,24 4,0 4,0 0,-24 z m -4,-4.075 0,0.075 4,0 3.862,0 0,-20 -7.862,0 0,19.925 z m 8,32.075 -4,0 -4,0 0,24 4,0 4,0 0,-24 z m -20,24 4,0 4,0 0,-24 -4,0 -4,0 0,24 z m -4,-28 4,0 4,0 0,-24 -8,0 0,24 z m 32,-32 0,-4 -4,0 -0.138,0 0,8 4.138,0 0,-4 z m 4,36 -4,0 -4,0 0,24 8,0 0,-24 z m 0,28 -8,0 -4,0 0,32 12,0 0,-32 z m -44,32 12,0 0,-32 -4,0 -8,0 0,32 z m -12,-36 8,0 0,-24 -4,0 -4,0 0,24 z m 4,-52 -8,0 0,24 4,0 4,0 0,-24 z m -12,0 -4,0 -4,0 0,24 4,0 4,0 0,-24 z m -8,-8 -3.396,0 -0.453,0 -3.547,0 -0.453,0 -4.151,0 0,4 8,0 4,0 0,-4 z m 8.151,-4 0,-32 -11.547,0 0,32 3.396,0 4,0 4.151,0 z m 0,-68 -11.547,0 0,32 11.547,0 0,-32 z m -23.547,32 7.547,0 0,-32 -7.547,0 0,32 z m -4.15,-32 -8,0 0,32 8,0 0,-32 z m -12.152,0 -8,0 0,32 8,0 0,-32 z m -12.151,0 -8,0 0,32 8,0 0,-32 z m -12.151,0 -8,0 0,28 0,4 8,0 0,-32 z m -16,32 -4,0 0,20 8,0 0,-16 0,-4 -4,0 z m -4,-20 -8,0 0,16 4,0 4,0 0,-16 z m -12,0 -8,0 0,16 4,0 4,0 0,-16 z m 0,40 8,0 0,-20 -4,0 -4,0 0,20 z m -8,-4 -28,0 0,28 4,0 8,0 4,0 8,0 4,0 0,-28 z m -24,48 8,0 0,-16 -8,0 0,16 z m 12,0 8,0 0,-16 -8,0 0,16 z m 12,0 8,0 0,-16 -4,0 -4,0 0,16 z m 32,8 0,-24 -4,0 -4,0 0,24 4,0 4,0 z m 16,28 0,-24 -4,0 -4,0 0,24 4,0 4,0 z m 24,4 -8,0 -4,0 0,36 12,0 0,-36 z m 12,-28 -4,0 -4,0 0,24 8,0 0,-24 z m -12,-28 0,24 4,0 4,0 0,-24 -8,0 z m 8,-8 -3.395,0 -0.151,0 -8,0 -0.152,0 -0.302,0 0,4 4,0 8,0 0,-4 z m -11.546,-4 8,0 0,-32 -8,0 0,32 z m -12.152,0 7.698,0 0.302,0 0,-32 -8,0 0,32 z m -12.151,0 3.849,0 4,0 0.151,0 0,-32 -8,0 0,32 z M 48,-72 l 0,4 0,12 4,0 4,0 0,-32 -8,0 0,16 z m 12,24 4,0 0,-4 -3.849,0 -0.151,0 -3.849,0 -0.151,0 -4,0 0,4 8,0 z m 12,28 0,-24 -4,0 -4,0 0,24 4,0 4,0 z m 8,-32 -7.698,0 -0.151,0 -3.849,0 -0.151,0 -0.151,0 0,4 4,0 4,0 4,0 0,-4 z m 4,8 -4,0 -4,0 0,24 4,0 4,0 0,-24 z m 4,28 -4,0 -4,0 0,24 8,0 0,-24 z m -20,24 4,0 4,0 0,-24 -4,0 -4,0 0,24 z m -16,-28 4,0 4,0 0,-24 -8,0 0,24 z m -16,-28 4,0 4,0 0,-4 0,-4 0,-12 -8,0 0,20 z m -12,0 4,0 4,0 0,-20 -8,0 0,20 z m 80.151,-40 -7.547,0 0,32 3.396,0 4.151,0 0,-32 z m 3.849,44 -8,0 0,24 4,0 4,0 0,-24 z m -48,92 12,0 0,-36 -4,0 -4,0 -4,0 0,36 z M 44,8 l 8,0 0,-24 -4,0 -4,0 0,24 z m -16,-28.423 0,0.423 4,0 4,0 0,-24 -4,0 -4,0 0,16 0,4 0,3.577 z M 36,68 l -40,0 0,16 40,0 0,-16 z m -24,-180 -8,0 0,16 8,0 0,-16 z m -12,0 -8,0 0,16 8,0 0,-16 z m -12,116.423 0,-4 0,-16 0,-4 4,0 8,0 0,-0.423 4,0 8,0 0,-0.423 4,0 8,0 0,-3.577 -8,0 -4,0 -8,0 -4,0 -8,0 -4,0 0,-4 0,-16 -4,0 0,-4 0,-28 0,-4 4,0 28,0 4,0 0,-12 -4,0 -4,0 -8,0 -4,0 -8,0 -4,0 0,-4 0,-16 0,-4 4,0 8,0 4,0 8,0 4,0 8,0 4,0 8,0 4,0 0,4 0,16 4,0 0,-28 0,-4 4,0 8,0 0.151,0 3.849,0 0.151,0 8,0 0.151,0 3.849,0 0.151,0 8,0 0.152,0 3.848,0 0.152,0 8,0 0.151,0 3.848,0 0.151,0 7.547,0 0.453,0 3.547,0 0.453,0 11.547,0 4,0 0,4 0,32 0,4 0,32 0,4 -4,0 -4.151,0 0,4 4,0 4,0 8,0 4,0 8,0 4,0 0,-0.075 0,-20 0,-4 0,-20 0,-4 0,-20 0,-4 4,0 8,0 4,0 0,0.075 7.862,0 0.138,0 0,-8 0,-4 4,0 8,0 4,0 0,4 0,32 0,4 0,32 0,4 8,0 4,0 0,4 0,32 0,4 0,24 4,0 0,4 0,36 0,4 0,32 0,4 -4,0 -12,0 -4,0 0,-4 -12,0 -4,0 -12,0 -4,0 -12,0 -4,0 -12,0 -4,0 0,-4 0,-32 0,-4 0,-32 -4,0 -4,0 -4,0 0,36 0,4 0,36 0,4 -4,0 -12,0 -4,0 -12,0 -4,0 -12,0 -4,0 -12,0 -4,0 0,-4 -4,0 -40,0 -4,0 0,-4 0,-16 0,-4 4,0 40,0 4,0 0,-12 0,-4 0,-36 -8,0 -4,0 0,-4 0,-4.423 -4,0 -8,0 0,0.423 -4,0 -8,0 0,0.423 -4,0 -8,0 -4,0 z" /></g></g></g></g></svg>
